arrow-bottom-right-thin-circle-outline.svg

<svg fill="currentColor" viewBox="0 0 24 24"><path d="M12 20.03c-4.41 0-8.03-3.62-8.03-8.03S7.59 3.97 12 3.97s8.03 3.62 8.03 8.03-3.62 8.03-8.03 8.03M12 22c5.54 0 10-4.46 10-10S17.54 2 12 2 2 6.46 2 12s4.46 10 10 10m1.88-9.53L16 10.36V16h-5.64l2.11-2.12L7.5 8.9l1.4-1.4"/></svg>

<svg  viewBox="0 0 24 24" fill="currentColor"><path  d="M12 20.03C7.59 20.03 3.97 16.41 3.97 12C3.97 7.59 7.59 3.97 12 3.97C16.41 3.97 20.03 7.59 20.03 12C20.03 16.41 16.41 20.03 12 20.03M12 22C17.54 22 22 17.54 22 12C22 6.46 17.54 2 12 2C6.46 2 2 6.46 2 12C2 17.54 6.46 22 12 22M13.88 12.47L16 10.36V16H10.36L12.47 13.88L7.5 8.9L8.9 7.5"/></svg>
